X: 1
T: Flooded Road To Glenties, The
M: 4/4
L: 1/8
R: reel
K: Bmin
FB~B2 dfec|dfec BAFE|FB~B2 faag|afeg ~f3e|
~f3e fded|~B3c defg|af~f2 fedc|1dfec ~B3A:|2dfec ~B3c||
dB~B2 aB^gB|fB~B2 ~B3c|dB~B2 faag|afeg ~f3e|
~f3e fded|~B3c defg|af~f2 fedc|1dfec ~B3c:|2dfec ~B3A||
